X: 63
M: 6/8
L: 1/8
K: G
(dc) B (cd) e | A3 (cB) A | G2 B A2 B |
(AF) A d2 B | (AF) A d2 e |
(fe) d (dB) e | (^c3 A2) A | B2 d A2 d |
(FG) A D2 d | e2 e (^cB) c | (d3 Hf2) D |
(dc) B (cd) e | (A3 cB) A | G2 B A2 B |
(dB) G A2 B | (G3 B2) |]

